X: 19315
T: Jack Daniel's
R: reel
M: 4/4
K: Amajor
e|a2 ea f/g/a ec|Acaf e2ce|fd d/d/d d2 fd|ec c/c/c cBBe|
a2ea f/g/a ec|Acafe2 ce|f2ec e2fe|c2Bd cAA:|
f|ecBc AcBc|Acaf e2 ce|fdcd Adcd|ABde fe e/e/e
fece Aece|Acaf e2ce|f2ec e2fe|c2Bd cAA:|

